!!!!SEGMENT: pl-sa--481-a-viii-121--019_anonim--andante.krn
!!!cenid: 18xx:390
!!!COM: Anonim
!!!COM-rismid: pe30004985
!!!CDT:
!!!CNT:
!!!OTL: Andante
!!!PDT:
!!!AGN: Secular
!!!SMS-siglum: PL-SA
!!!SMS-shelfmark: 481/A VIII 121
!!!SMS-shelfwork: 019 W
!!!SMS-variant:
!!!SMS-altvar:
!!!NIFC-rismid: 1001070720
!!!URL-scan: http://bc.bdsandomierz.pl/dlibra/publication/1212/edition/1171/content
!!!ONB-nifc: Str. 10, s. 5
**kern	**kern
*part1	*part1
*staff2	*staff1
*I"Pianoforte	*
*I'P-no	*
*clefF4	*clefG2
*k[]	*k[]
*M4/4	*M4/4
*met(c)	*met(c)
=1	=1
!	!LO:TX:a:i:B:t=Andatte:rj
!LO:TX:a:t=P:problem:caudy z prawej strony	!LO:TX:a:t=P:problem:caudy z prawej strony
8C\L	4ee\ 4gg
8G\	.
8E\	8ee\L
8G\J	8cc\J
8D\L	8gg\L
8G\	8ff\
8F\	8dd\
8G\J	8b\J
=2	=2
8C\L	4cc\ 4ee
8G\	.
8E\	4cc\ 4ee
8G\J	.
8BB\L	4b\ 4dd
8G\	.
8D\	4r
8G\J	.
=3	=3
8C\L	4gg\
8G\	.
8E\	8ee\L
8G\J	8cc\J
8D\L	8gg\L
8G\	8ff\
8F\	8dd\
8G\J	8b\J
=4	=4
8C\L	4cc\ 4ee
8G\	.
8E\	4cc\ 4ee
8G\J	.
8BB\L	4b\ 4dd
8G\	.
8D\	4r
8G\J	.
=5!|:	=5!|:
1ryy	4b\ 4dd
.	4b\ 4dd
.	4cc\ 4ee
.	4cc\ 4ee
=6	=6
4GG/	8dd\L 8ff
.	8cc\ 8ee
4G\	8dd\ 8ff
.	8ee\J 8gg
4GG/	4ff\ 4aa
4G\	4r
=7	=7
4C\	4ee\ 4gg
4F\	8ff\L 8aa
.	8dd\J 8ff
4G\	4cc\ 4ee
4GG/	4b\ 4dd
=8	=8
8C/L	4cc\
8GG/	.
8EE/	4r
8GG/J	.
4CC/	4r
4r	4r
=:|!	=:|!
*-	*-
!!!system-decoration: {(s1,s2)}
!!!RDF**kern: > = above
!!!RDF**kern: < = below
!!!EED: Mateusz Mrugas
!!!EST: 2020-11-21
!!!ENC: Tomasz Grochalski
!!!END: 2020-06-14
